assets/img/components/tooltip-header.svg

<svg width="576" height="145" viewBox="0 0 576 145" fill="none" xmlns="http://www.w3.org/2000/svg">
<path d="M393.576 0C415.349 0 433 17.8525 433 39.8751V145L288 145V0L393.576 0Z" fill="#286AD8"/>
<path d="M289 39.4242C289 17.6508 271.148 0 249.125 0L144 0V145H289V39.4242Z" fill="#286AD8"/>
<path d="M145 105.125V0C64.9187 0 0 64.9187 0 145H105.125C127.147 145 145 127.147 145 105.125Z" fill="#286AD8"/>
<path d="M503.5 145C543.541 145 576 112.541 576 72.5C576 32.4594 543.541 0 503.5 0C463.459 0 431 32.4594 431 72.5C431 112.541 463.459 145 503.5 145Z" fill="#286AD8"/>
<path d="M238.301 121.877H203.733C202.093 121.877 201 120.726 201 118.998C201 117.271 202.093 116.122 203.733 116.122H238.301C239.94 116.122 241.034 117.271 241.034 118.998C241.034 120.726 239.94 121.877 238.301 121.877Z" fill="#5187DF" fill-opacity="0.8"/>
<path d="M329.301 121.877H310.733C309.093 121.877 308 120.726 308 118.998C308 117.271 309.093 116.122 310.733 116.122H329.301C330.94 116.122 332.034 117.271 332.034 118.998C332.034 120.726 330.94 121.877 329.301 121.877Z" fill="#5187DF" fill-opacity="0.8"/>
<path d="M298.301 121.877H250.733C249.093 121.877 248 120.726 248 118.998C248 117.271 249.093 116.122 250.733 116.122H298.301C299.94 116.122 301.034 117.271 301.034 118.998C301.034 120.726 299.94 121.877 298.301 121.877Z" fill="#5187DF" fill-opacity="0.8"/>
<circle cx="349" cy="119" r="8" fill="#5187DF" fill-opacity="0.8"/>
<path d="M392.32 67C394.212 67 395.745 68.5335 395.745 70.4248V91.5752C395.745 93.4665 394.212 95 392.32 95H356.5L349 102.5L341.5 95H304.425C302.533 95 301 93.4665 301 91.5752V70.4248C301 68.5335 302.533 67 304.425 67H392.32Z" fill="#5187DF"/>
<path d="M356.5 95V94.5H356.293L356.146 94.6464L356.5 95ZM349 102.5L348.646 102.854L349 103.207L349.354 102.854L349 102.5ZM341.5 95L341.854 94.6464L341.707 94.5H341.5V95ZM392.32 67V67.5C393.935 67.5 395.245 68.8096 395.245 70.4248H395.745H396.245C396.245 68.2574 394.488 66.5 392.32 66.5V67ZM395.745 70.4248H395.245V91.5752H395.745H396.245V70.4248H395.745ZM395.745 91.5752H395.245C395.245 93.1904 393.935 94.5 392.32 94.5V95V95.5C394.488 95.5 396.245 93.7426 396.245 91.5752H395.745ZM392.32 95V94.5H356.5V95V95.5H392.32V95ZM356.5 95L356.146 94.6464L348.646 102.146L349 102.5L349.354 102.854L356.854 95.3536L356.5 95ZM349 102.5L349.354 102.146L341.854 94.6464L341.5 95L341.146 95.3536L348.646 102.854L349 102.5ZM341.5 95V94.5H304.425V95V95.5H341.5V95ZM304.425 95V94.5C302.81 94.5 301.5 93.1904 301.5 91.5752H301H300.5C300.5 93.7426 302.257 95.5 304.425 95.5V95ZM301 91.5752H301.5V70.4248H301H300.5V91.5752H301ZM301 70.4248H301.5C301.5 68.8096 302.81 67.5 304.425 67.5V67V66.5C302.257 66.5 300.5 68.2574 300.5 70.4248H301ZM304.425 67V67.5H392.32V67V66.5H304.425V67Z" fill="#7AA5E7"/>
<path d="M379.383 84.5695H360.37C358.73 84.5695 357.637 83.4179 357.637 81.6905C357.637 79.9629 358.73 78.8145 360.37 78.8145H379.383C381.022 78.8145 382.116 79.9629 382.116 81.6905C382.116 83.4179 381.022 84.5695 379.383 84.5695Z" fill="#1545BB"/>
<path d="M350.574 84.5695H316.006C314.367 84.5695 313.274 83.4179 313.274 81.6905C313.274 79.9629 314.367 78.8145 316.006 78.8145H350.574C352.214 78.8145 353.307 79.9629 353.307 81.6905C353.307 83.4179 352.214 84.5695 350.574 84.5695Z" fill="#1545BB"/>
</svg>

<svg xmlns="http://www.w3.org/2000/svg" width="576" height="145" fill="none" viewBox="0 0 576 145"><path fill="#286ad8" d="M393.576 0C415.349 0 433 17.853 433 39.875V145H288V0z"/><path fill="#286ad8" d="M289 39.424C289 17.651 271.148 0 249.125 0H144v145h145z"/><path fill="#286ad8" d="M145 105.125V0C64.919 0 0 64.919 0 145h105.125C127.147 145 145 127.147 145 105.125M503.5 145c40.041 0 72.5-32.459 72.5-72.5S543.541 0 503.5 0 431 32.46 431 72.5s32.459 72.5 72.5 72.5"/><path fill="#5187df" fill-opacity=".8" d="M238.301 121.877h-34.568c-1.64 0-2.733-1.151-2.733-2.879s1.093-2.876 2.733-2.876h34.568c1.639 0 2.733 1.149 2.733 2.876 0 1.728-1.094 2.879-2.733 2.879M329.301 121.877h-18.568c-1.64 0-2.733-1.151-2.733-2.879s1.093-2.876 2.733-2.876h18.568c1.639 0 2.733 1.149 2.733 2.876 0 1.728-1.094 2.879-2.733 2.879M298.301 121.877h-47.568c-1.64 0-2.733-1.151-2.733-2.879s1.093-2.876 2.733-2.876h47.568c1.639 0 2.733 1.149 2.733 2.876 0 1.728-1.094 2.879-2.733 2.879"/><circle cx="349" cy="119" r="8" fill="#5187df" fill-opacity=".8"/><path fill="#5187df" d="M392.32 67a3.425 3.425 0 0 1 3.425 3.425v21.15A3.425 3.425 0 0 1 392.32 95H356.5l-7.5 7.5-7.5-7.5h-37.075A3.425 3.425 0 0 1 301 91.575v-21.15A3.425 3.425 0 0 1 304.425 67z"/><path fill="#7aa5e7" d="M356.5 95v-.5h-.207l-.147.146zm-7.5 7.5-.354.354.354.353.354-.353zm-7.5-7.5.354-.354-.147-.146h-.207zm50.82-28v.5a2.925 2.925 0 0 1 2.925 2.925h1a3.925 3.925 0 0 0-3.925-3.925zm3.425 3.425h-.5v21.15h1v-21.15zm0 21.15h-.5a2.925 2.925 0 0 1-2.925 2.925v1a3.925 3.925 0 0 0 3.925-3.925zM392.32 95v-.5H356.5v1h35.82zm-35.82 0-.354-.354-7.5 7.5.354.354.354.354 7.5-7.5zm-7.5 7.5.354-.354-7.5-7.5-.354.354-.354.354 7.5 7.5zm-7.5-7.5v-.5h-37.075v1H341.5zm-37.075 0v-.5a2.925 2.925 0 0 1-2.925-2.925h-1a3.925 3.925 0 0 0 3.925 3.925zM301 91.575h.5v-21.15h-1v21.15zm0-21.15h.5a2.925 2.925 0 0 1 2.925-2.925v-1a3.925 3.925 0 0 0-3.925 3.925zM304.425 67v.5h87.895v-1h-87.895z"/><path fill="#1545bb" d="M379.383 84.57H360.37c-1.64 0-2.733-1.152-2.733-2.88s1.093-2.876 2.733-2.876h19.013c1.639 0 2.733 1.149 2.733 2.877s-1.094 2.879-2.733 2.879M350.574 84.57h-34.568c-1.639 0-2.732-1.152-2.732-2.88s1.093-2.876 2.732-2.876h34.568c1.64 0 2.733 1.149 2.733 2.877s-1.093 2.879-2.733 2.879"/></svg>
